!!!OTL: Ritter und Magd Es schlief ein Graf bei seiner Magd
!!!ARE: Europa, Mitteleuropa, Deutschland (BRD), nordwest - deutsch ?
!!!YOR: 3, S. 19
!!    1916 aufgezeichnet (1914/16)
!!!SCT: Q0055K
!!!YEM: Copyright 1995, estate of Helmut Schaffrath.
**kern
*ICvox
*Ivox
*M4/4
*k[]
*C:
{8c
8e
=1
4g
4g
8g
8a
8f
8d
=2
4c
4e
4e}
{4e
=3
4.d
8e
4f
4g
=4
4f
4e
4r}
{4g
=5
4.g
8e
4.cc
8b
=6
4b
4a
4a}
{4a
=7
4.g
8cc
4ee
4dd
=8
4dd
4cc
4r}
==
!!!AGN: Ballade, Betrug, Schwangerschaft, Tod, Selbstmord, Herr und Magd
!!!ONB: ESAC (Essen Associative Code) Database: BALLADE
!!!AMT: simple quadruple
!!!AIN: vox
!!!EED: Helmut Schaffrath
!!!EEV: 1.0
*-
